!!! OTL: Berkowitz566
!!! Chapter: 1
!!! Section: V
!!! Page: 143
!!! Mode: 
!!! Encoder: DJB
**kern
*staff1
*I"Piano
=1-
*clefG2
*k[]
*C:
*M4/4
4c/
4g/
4a-/
4d-/
=2
4d/
4a/
4b-\
4e-/
=3
4.e/
8a/
4a-/
4e-/
=4
4b-\
4a/
4e/
4r
=5
4f/
4B-/
4A/
4e/
=6
4b\
4f#/
4cc#\
4g#/
=7
4.g/
8f/
4e/
4b\
=8
4b-\
4e-/
2d/
==
*-
